X: 1
T: Jack's Pocket Ashtray
M: 6/8
L: 1/8
R: jig
K: Gmaj
gfe fed|e2B B2d|e2d e2d|c3 c2e|
fed f2a|f2d d2e|fed c2d|B3 B2d|
gfe fed|e2B B2d|e2d e2d|c3 c2e|
fed f2a|f2d d2e|fed cBA|G3 G2B|
dcB d2e|d2B B2d|edc e2f|e3 e2e|
fed f2a|f2d d2e|fed c2d|B3 B2d|
dcB d2e|d2B B2d|edc e2f|e3 e2e|
fed f2a|f2d d2e|fed cBA|G3 G3|
